X:179
T: Die Mordeltern
N: Q0085U
O: Mitteleuropa, Deutschland (BRD) , Nordbayern, Unterfranken
R: Ballade, Habgier, Mord, Reue, Selbstmord
M: 9/8
L: 1/16
K: G
D2 | D4G2G3BA2-A4G2 | F4G2A6-A4
A2 | A4A2B6-B4A2 | G4A2B6-B4
G2 | G4G2c6-c4B2 | A4G2G6-G4
G2 | G4G2c6-c4B2 | A4G2G6-G4

